X:1
T:Once Upon A Time In America
T:One Upon A Time In America
C:Ennio Morricone
Z:All Rights Reserved
L:1/4
M:2/2
K:E
V:1 treble nm="Piano" snm="Pno."
%%MIDI program 0
%%MIDI control 7 100
%%MIDI control 10 64
V:1
"Emaj7" G4- | G (B, D E |"F#m/E" F4- | F) (C E F |"Emaj7" G4- | G) (B, F E |"A/E" A4- | A2) (G F | %8
"Bm7/D" B4- |"C#7" B3/2) B/"C#m7b5" (A G |"Amaj7" c4- |"D#m7b5" c) (F E D |"G#m7" B4- | %13
"C#m7" B) (E F G |"F#m7" A3) (F |"B7sus4" E2"B7" D2) |"Emaj7""A/E" G4 | E2"F#m/E" F2- | F4- | F4- | %20
 (F4 | E3) (F |"Emaj7" G4- | G) (B, D E |"F#m/E" F4- | F) (C E F |"Emaj7" G4- | G) (B, F E | %28
"A/E" A4- | A2) (G F |"Bm7/D" B4- |"C#7" B) (B"C#7b5" A G |"Amaj7" c4- |"D#m7b5" c) (d e f | %34
"G#m7" B4- |"C#m7" B) (E F G |"F#m7" A3) (F |"B7sus4" E2"B7" D2- | D4) |"E" E4- | E4 | e4- | e4- | %43
 e2 z2 |] %44

